X: 13169
T: First Of May, The
R: hornpipe
M: 4/4
K: Amajor
AF|EAAB cBcA|dcde f2 ef|gfed cdec|dcAF GFGE|*
EAAB cBcA|dBde f2 af|gfeg dfec|A2A2A2:|*
eg|a2 af g2 ge|f2 fd e2 ed|cdef geed|cAAF GFAE|*
EAAB cBcA|dcde f2 af|gfed cAdc|A2A2A2:|
A>G|E>AA>B =c>Bc>A|d>=cd>e f2 e>f|g>fe>c d>fe>d|c>AG>F G2 A>G|*
E>AA>B =c>Bc>A|d>=cd>e f2 e>f|g>fe>c d>fe>c|A2A2A2:|
f>g|a2 a>f g2 g>e|f>gf>d e2 e>d|c>de>f g>fe>c|d>cA>F G2 A>G|*
E>AA>B =c>Bc>A|d>=cd>e f2 e>f|g>fe>c d>fe>c|A2A2A2:|*
AG|EAAB cBcA|dcde f2 ef|gedc dfed|cAGF G2G2|*
EAAB cBcA|dBde f2 ef|gedc dfec|A AA A2:|*
fg|a2 af g2 ge|fgfd e2 ed|cdef gfed|cAGF G2G2|*
EAAB cBcA|dcde f2 ef|gedc dfec|A AA A2:|

